images/indikatorenset/4288.svg

<?xml version="1.0" standalone="no"?><!DOCTYPE svg PUBLIC "-//W3C//DTD SVG 1.1//EN" "http://www.w3.org/Graphics/SVG/1.1/DTD/svg11.dtd"><svg xmlns:xlink="http://www.w3.org/1999/xlink" version="1.1" class="highcharts-root" style="font-family:arial;font-size:9pt;" xmlns="http://www.w3.org/2000/svg" width="485" height="415"><desc>Created with Highstock 5.0.14</desc><defs><clipPath id="highcharts-hswonk3-7"><rect x="0" y="0" width="434" height="254" fill="none"></rect></clipPath><clipPath id="highcharts-hswonk3-8"><rect x="0" y="0" width="434" height="254" fill="none"></rect></clipPath></defs><rect fill="#fbfbfb" class="highcharts-background" x="0" y="0" width="485" height="415" rx="0" ry="0"></rect><rect fill="none" class="highcharts-plot-background" x="41" y="90" width="434" height="254"></rect><g class="highcharts-label" style="cursor:pointer;" transform="translate(10,451)"><text x="0" y="0"><tspan>&gt; Indikator-Details</tspan></text></g><g class="highcharts-pane-group"></g><g class="highcharts-grid highcharts-xaxis-grid "><path fill="none" class="highcharts-grid-line" d="M 51.5 90 L 51.5 344" opacity="1"></path><path fill="none" class="highcharts-grid-line" d="M 94.5 90 L 94.5 344" opacity="1"></path><path fill="none" class="highcharts-grid-line" d="M 138.5 90 L 138.5 344" opacity="1"></path><path fill="none" class="highcharts-grid-line" d="M 181.5 90 L 181.5 344" opacity="1"></path><path fill="none" class="highcharts-grid-line" d="M 224.5 90 L 224.5 344" opacity="1"></path><path fill="none" class="highcharts-grid-line" d="M 268.5 90 L 268.5 344" opacity="1"></path><path fill="none" class="highcharts-grid-line" d="M 311.5 90 L 311.5 344" opacity="1"></path><path fill="none" class="highcharts-grid-line" d="M 355.5 90 L 355.5 344" opacity="1"></path><path fill="none" class="highcharts-grid-line" d="M 398.5 90 L 398.5 344" opacity="1"></path><path fill="none" class="highcharts-grid-line" d="M 441.5 90 L 441.5 344" opacity="1"></path></g><g class="highcharts-grid highcharts-yaxis-grid "><path fill="none" stroke="#e6e6e6" stroke-width="1" class="highcharts-grid-line" d="M 41 344.5 L 475 344.5" opacity="1"></path><path fill="none" stroke="#e6e6e6" stroke-width="1" class="highcharts-grid-line" d="M 41 259.5 L 475 259.5" opacity="1"></path><path fill="none" stroke="#e6e6e6" stroke-width="1" class="highcharts-grid-line" d="M 41 175.5 L 475 175.5" opacity="1"></path><path fill="none" stroke="#e6e6e6" stroke-width="1" class="highcharts-grid-line" d="M 41 89.5 L 475 89.5" opacity="1"></path></g><g class="highcharts-grid highcharts-yaxis-grid "></g><rect fill="none" class="highcharts-plot-border" x="41" y="90" width="434" height="254"></rect><g class="highcharts-axis highcharts-xaxis "><path fill="none" class="highcharts-axis-line" stroke="#ccd6eb" stroke-width="1" d="M 41 344.5 L 475 344.5"></path></g><g class="highcharts-axis highcharts-yaxis "><path fill="none" class="highcharts-axis-line" d="M 41 90 L 41 344"></path></g><g class="highcharts-axis highcharts-yaxis "><path fill="none" class="highcharts-axis-line" d="M 475 90 L 475 344"></path></g><g class="highcharts-series-group"><g class="highcharts-series highcharts-series-0 highcharts-column-series highcharts-color-undefined " transform="translate(41,90) scale(1 1)" clip-path="url(#highcharts-hswonk3-8)"><rect x="6" y="18" width="11" height="237" fill="#FF8028" class="highcharts-point"></rect><rect x="27" y="18" width="11" height="237" fill="#FF8028" class="highcharts-point"></rect><rect x="49" y="18" width="11" height="237" fill="#FF8028" class="highcharts-point"></rect><rect x="71" y="18" width="11" height="237" fill="#FF8028" class="highcharts-point"></rect><rect x="92" y="18" width="11" height="237" fill="#FF8028" class="highcharts-point"></rect><rect x="114" y="18" width="11" height="237" fill="#FF8028" class="highcharts-point"></rect><rect x="136" y="18" width="11" height="237" fill="#FF8028" class="highcharts-point"></rect><rect x="158" y="18" width="11" height="237" fill="#FF8028" class="highcharts-point"></rect><rect x="179" y="18" width="11" height="237" fill="#FF8028" class="highcharts-point"></rect><rect x="201" y="18" width="11" height="237" fill="#FF8028" class="highcharts-point"></rect><rect x="223" y="18" width="11" height="237" fill="#FF8028" class="highcharts-point"></rect><rect x="244" y="18" width="11" height="237" fill="#FF8028" class="highcharts-point"></rect><rect x="266" y="18" width="11" height="237" fill="#FF8028" class="highcharts-point"></rect><rect x="288" y="18" width="11" height="237" fill="#FF8028" class="highcharts-point"></rect><rect x="309" y="18" width="11" height="237" fill="#FF8028" class="highcharts-point"></rect><rect x="331" y="18" width="11" height="237" fill="#FF8028" class="highcharts-point"></rect><rect x="353" y="18" width="11" height="237" fill="#FF8028" class="highcharts-point"></rect><rect x="375" y="18" width="11" height="237" fill="#FF8028" class="highcharts-point"></rect><rect x="396" y="18" width="11" height="237" fill="#FF8028" class="highcharts-point"></rect><rect x="418" y="18" width="11" height="237" fill="#FF8028" class="highcharts-point"></rect></g><g class="highcharts-markers highcharts-series-0 highcharts-column-series highcharts-color-undefined " transform="translate(41,90) scale(1 1)" clip-path="none"></g></g><text x="10" text-anchor="start" class="highcharts-title" style="color:#000000;font-size:1.1em;font-weight:bold;fill:#000000;" y="20"><tspan>Waldreservate</tspan></text><text x="10" text-anchor="start" class="highcharts-subtitle" style="color:#000000;font-size:0.9em;fill:#000000;" y="38"><tspan>Prozent</tspan></text><g class="highcharts-legend" transform="translate(10,40)"><rect fill="none" class="highcharts-legend-box" rx="0" ry="0" x="0" y="0" width="148" height="38" visibility="visible"></rect><g><g><g class="highcharts-legend-item highcharts-column-series highcharts-color-undefined highcharts-series-0" transform="translate(12,7)"><text x="21" style="color:#333333;font-size:1em;font-weight:normal;cursor:pointer;fill:#333333;" text-anchor="start" y="15"><tspan>Kanton Basel-Stadt</tspan></text><rect x="2" y="4" width="12" height="12" fill="#FF8028" class="highcharts-point"></rect></g></g></g></g><g class="highcharts-axis-labels highcharts-xaxis-labels "><text x="51.85" style="color:#000000;cursor:default;font-size:0.9em;fill:#000000;" text-anchor="middle" transform="translate(0,0)" y="363" opacity="1">1997</text><text x="95.25" style="color:#000000;cursor:default;font-size:0.9em;fill:#000000;" text-anchor="middle" transform="translate(0,0)" y="363" opacity="1">1999</text><text x="138.64999999999998" style="color:#000000;cursor:default;font-size:0.9em;fill:#000000;" text-anchor="middle" transform="translate(0,0)" y="363" opacity="1">2001</text><text x="182.04999999999998" style="color:#000000;cursor:default;font-size:0.9em;fill:#000000;" text-anchor="middle" transform="translate(0,0)" y="363" opacity="1">2003</text><text x="225.45" style="color:#000000;cursor:default;font-size:0.9em;fill:#000000;" text-anchor="middle" transform="translate(0,0)" y="363" opacity="1">2005</text><text x="268.85" style="color:#000000;cursor:default;font-size:0.9em;fill:#000000;" text-anchor="middle" transform="translate(0,0)" y="363" opacity="1">2007</text><text x="312.25" style="color:#000000;cursor:default;font-size:0.9em;fill:#000000;" text-anchor="middle" transform="translate(0,0)" y="363" opacity="1">2009</text><text x="355.65000000000003" style="color:#000000;cursor:default;font-size:0.9em;fill:#000000;" text-anchor="middle" transform="translate(0,0)" y="363" opacity="1">2011</text><text x="399.05" style="color:#000000;cursor:default;font-size:0.9em;fill:#000000;" text-anchor="middle" transform="translate(0,0)" y="363" opacity="1">2013</text><text x="442.45" style="color:#000000;cursor:default;font-size:0.9em;fill:#000000;" text-anchor="middle" transform="translate(0,0)" y="363" opacity="1">2015</text></g><g class="highcharts-axis-labels highcharts-yaxis-labels "><text x="26" style="color:#000000;cursor:default;font-size:0.9em;fill:#000000;" text-anchor="end" transform="translate(0,0)" y="349" opacity="1"><tspan>0%</tspan></text><text x="26" style="color:#000000;cursor:default;font-size:0.9em;fill:#000000;" text-anchor="end" transform="translate(0,0)" y="264" opacity="1"><tspan>1%</tspan></text><text x="26" style="color:#000000;cursor:default;font-size:0.9em;fill:#000000;" text-anchor="end" transform="translate(0,0)" y="179" opacity="1"><tspan>2%</tspan></text><text x="26" style="color:#000000;cursor:default;font-size:0.9em;fill:#000000;" text-anchor="end" transform="translate(0,0)" y="95" opacity="1"><tspan>3%</tspan></text></g><g class="highcharts-axis-labels highcharts-yaxis-labels "></g><text x="10" class="highcharts-credits" text-anchor="start" style="cursor:default;color:#000000;font-size:0.8em;fill:#000000;" y="400"><tspan>Quelle: Amt für Wald beider Basel; Landwirtschaftliches Zentrum Ebenrain</tspan></text></svg>

<svg class="highcharts-root" xmlns="http://www.w3.org/2000/svg" viewBox="0 0 485 415" font-family="Arial" font-size="12">
    <defs>
        <clipPath id="a">
            <path fill="none" d="M0 0h434v254H0z"/>
        </clipPath>
    </defs>
    <rect fill="#fbfbfb" class="highcharts-background" width="485" height="415" rx="0" ry="0"/>
    <path fill="none" class="highcharts-plot-background" d="M41 90h434v254H41z"/>
    <text transform="translate(10 451)" class="highcharts-label" cursor="pointer">
        <tspan>&gt; Indikator-Details</tspan>
    </text>
    <g class="highcharts-grid highcharts-xaxis-grid">
        <path fill="none" class="highcharts-grid-line" d="M51.5 90v254m0-254v254m43-254v254m0-254v254m44-254v254m0-254v254m43-254v254m0-254v254m43-254v254m0-254v254m44-254v254m0-254v254m43-254v254m0-254v254m44-254v254m0-254v254m43-254v254m0-254v254m43-254v254m0-254v254"/>
    </g>
    <g class="highcharts-grid highcharts-yaxis-grid">
        <path fill="none" stroke="#e6e6e6" class="highcharts-grid-line" d="M41 344.5h434m-434-85h434m-434-84h434m-434-86h434"/>
    </g>
    <path fill="none" class="highcharts-plot-border" d="M41 90h434v254H41z"/>
    <g class="highcharts-axis highcharts-xaxis">
        <path fill="none" class="highcharts-axis-line" stroke="#ccd6eb" d="M41 344.5h434"/>
    </g>
    <g class="highcharts-axis highcharts-yaxis">
        <path fill="none" class="highcharts-axis-line" d="M41 90v254"/>
    </g>
    <g class="highcharts-axis highcharts-yaxis">
        <path fill="none" class="highcharts-axis-line" d="M475 90v254"/>
    </g>
    <g class="highcharts-series-group">
        <g class="highcharts-series highcharts-series-0 highcharts-column-series highcharts-color-undefined highcharts-tracker" transform="translate(41 90)" clip-path="url(#a)">
            <path fill="#FF8028" class="highcharts-point" d="M6 18h11v237H6zm21 0h11v237H27zm22 0h11v237H49zm22 0h11v237H71zm21 0h11v237H92zm22 0h11v237h-11zm22 0h11v237h-11zm22 0h11v237h-11zm21 0h11v237h-11zm22 0h11v237h-11zm22 0h11v237h-11zm21 0h11v237h-11zm22 0h11v237h-11zm22 0h11v237h-11zm21 0h11v237h-11zm22 0h11v237h-11zm22 0h11v237h-11zm22 0h11v237h-11zm21 0h11v237h-11zm22 0h11v237h-11z"/>
        </g>
    </g>
    <text x="10" class="highcharts-title" y="20" color="#000" font-size="1.1em" font-weight="700">
        <tspan>Waldreservate</tspan>
    </text>
    <text x="10" class="highcharts-subtitle" y="38" color="#000" font-size=".9em">
        <tspan>Prozent</tspan>
    </text>
    <g class="highcharts-legend" transform="translate(10 40)">
        <rect fill="none" class="highcharts-legend-box" rx="0" ry="0" width="148" height="38"/>
        <g class="highcharts-legend-item highcharts-column-series highcharts-color-undefined highcharts-series-0">
            <text x="21" y="15" color="#333" font-size="1em" font-weight="400" cursor="pointer" fill="#333" transform="translate(12 7)">
                <tspan>Kanton Basel-Stadt</tspan>
            </text>
            <path fill="#FF8028" class="highcharts-point" d="M14 11h12v12H14z"/>
        </g>
    </g>
    <g class="highcharts-axis-labels highcharts-xaxis-labels" text-anchor="middle" color="#000" cursor="default" font-size=".9em">
        <text x="51.85" y="363">
            1997
        </text>
        <text x="95.25" y="363">
            1999
        </text>
        <text x="138.65" y="363">
            2001
        </text>
        <text x="182.05" y="363">
            2003
        </text>
        <text x="225.45" y="363">
            2005
        </text>
        <text x="268.85" y="363">
            2007
        </text>
        <text x="312.25" y="363">
            2009
        </text>
        <text x="355.65" y="363">
            2011
        </text>
        <text x="399.05" y="363">
            2013
        </text>
        <text x="442.45" y="363">
            2015
        </text>
    </g>
    <g class="highcharts-axis-labels highcharts-yaxis-labels" text-anchor="end" color="#000" cursor="default" font-size=".9em">
        <text x="26" y="349">
            <tspan>0%</tspan>
        </text>
        <text x="26" y="264">
            <tspan>1%</tspan>
        </text>
        <text x="26" y="179">
            <tspan>2%</tspan>
        </text>
        <text x="26" y="95">
            <tspan>3%</tspan>
        </text>
    </g>
    <text x="10" class="highcharts-credits" y="400" cursor="default" color="#000" font-size=".8em">
        <tspan>Quelle: Amt für Wald beider Basel; Landwirtschaftliches Zentrum Ebenrain</tspan>
    </text>
</svg>
